svg/fluentui-system-icons/ic_fluent_globe_clock_24_regular.svg

<svg width="24" height="24" viewBox="0 0 24 24" fill="none" xmlns="http://www.w3.org/2000/svg">
<path d="M22.0031 12.0016C22.0031 6.47785 17.5253 2 12.0016 2C6.47785 2 2 6.47785 2 12.0016C2 17.5253 6.47785 22.0031 12.0016 22.0031C12.2648 22.0031 12.5256 21.9929 12.7835 21.9726C12.361 21.5273 12.0009 21.0221 11.7176 20.4713C10.6648 20.2363 9.66105 18.7168 9.06265 16.5013L11.0763 16.5011C11.157 15.978 11.3 15.4755 11.4976 15.0014L8.73973 15.0016C8.58615 14.0714 8.5 13.0611 8.5 12.0016C8.5 11.3109 8.5366 10.6412 8.60462 10.001H15.3985C15.4437 10.427 15.4751 10.866 15.4897 11.3168C15.965 11.1624 16.4643 11.0613 16.9806 11.0213C16.9647 10.676 16.9404 10.3355 16.9081 10.0009L20.2516 10.001L20.2662 10.0001C20.3901 10.5135 20.4674 11.0452 20.4933 11.5903L20.501 11.908L20.4971 11.7307C21.038 12.0122 21.5343 12.3676 21.973 12.7837C21.9929 12.5256 22.0031 12.2648 22.0031 12.0016ZM4.78738 16.5017L7.50986 16.5018C7.83363 17.8356 8.30124 19.0014 8.88154 19.9123C7.17916 19.2404 5.74572 18.0348 4.78738 16.5017ZM3.73261 10.0181L3.73737 10.0009L3.75155 10.001L7.09497 10.0009C7.03246 10.6483 7 11.3175 7 12.0016C7 13.0442 7.07543 14.0524 7.21773 15.0015L4.04457 15.0019C3.69259 14.0689 3.5 13.0577 3.5 12.0016C3.5 11.3186 3.58053 10.6545 3.73261 10.0181ZM8.8597 4.09942L8.8826 4.0907C8.16002 5.22295 7.61317 6.74888 7.29982 8.50167L4.2517 8.5013C5.15637 6.50144 6.81238 4.91413 8.8597 4.09942ZM11.8859 3.5053L12.0016 3.5C13.3076 3.5 14.5878 5.53542 15.1728 8.50125H8.83026C9.39798 5.62302 10.6205 3.62106 11.8859 3.5053ZM15.2284 4.26486L15.1216 4.09076C17.1789 4.90285 18.8435 6.49433 19.7514 8.5013L16.7033 8.50167C16.4057 6.83721 15.8976 5.37732 15.2284 4.26486ZM23 17.5C23 14.4624 20.5376 12 17.5 12C14.4624 12 12 14.4624 12 17.5C12 20.5376 14.4624 23 17.5 23C20.5376 23 23 20.5376 23 17.5ZM17.5 17.5H19.5C19.7761 17.5 20 17.7239 20 18C20 18.2762 19.7761 18.5 19.5 18.5H17C16.7268 18.5 16.5048 18.2809 16.5001 18.0089L16.5 17.9999V14.9999C16.5 14.7238 16.7239 14.4999 17 14.4999C17.2761 14.4999 17.5 14.7238 17.5 14.9999L17.5 17.5Z" fill="#212121"/>
</svg>

<svg xmlns="http://www.w3.org/2000/svg" width="24" height="24"><path d="M22.003 12.002C22.003 6.478 17.525 2 12.002 2 6.478 2 2 6.478 2 12.002c0 5.523 4.478 10.001 10.002 10.001.263 0 .524-.01.781-.03a6.506 6.506 0 0 1-1.065-1.502c-1.053-.235-2.057-1.754-2.655-3.97h2.013a6.452 6.452 0 0 1 .422-1.5H8.74a18.966 18.966 0 0 1-.135-5h6.793c.046.426.077.865.092 1.316a6.429 6.429 0 0 1 1.49-.296 20.38 20.38 0 0 0-.072-1.02h3.358c.124.513.201 1.044.227 1.59l.008.317-.004-.177a6.51 6.51 0 0 1 1.476 1.053c.02-.258.03-.52.03-.782Zm-17.216 4.5H7.51c.324 1.334.791 2.5 1.372 3.41a8.531 8.531 0 0 1-4.095-3.41Zm-1.054-6.484.004-.017h3.358A20.845 20.845 0 0 0 7 12a20.2 20.2 0 0 0 .218 3H4.045a8.483 8.483 0 0 1-.545-3c0-.682.08-1.346.233-1.983ZM8.86 4.1l.023-.008C8.16 5.223 7.613 6.749 7.3 8.5H4.252c.904-2 2.56-3.587 4.608-4.402Zm3.026-.594.116-.005c1.306 0 2.586 2.035 3.17 5.001H8.83c.568-2.878 1.79-4.88 3.056-4.996Zm3.342.76-.106-.174a8.531 8.531 0 0 1 4.63 4.41h-3.049c-.297-1.664-.805-3.124-1.475-4.236ZM23 17.5a5.5 5.5 0 1 0-11 0 5.5 5.5 0 0 0 11 0Zm-5.5 0h2a.5.5 0 0 1 0 1H17a.5.5 0 0 1-.5-.491v-3.01a.5.5 0 0 1 1 0V17.5Z"/></svg>
